public/entry-photos-off.svg

<?xml version="1.0" encoding="UTF-8" standalone="no"?>
<!DOCTYPE svg PUBLIC "-//W3C//DTD SVG 1.1//EN" "http://www.w3.org/Graphics/SVG/1.1/DTD/svg11.dtd">
<!-- Created with Vectornator (http://vectornator.io/) -->
<svg height="100%" stroke-miterlimit="10" style="fill-rule:nonzero;clip-rule:evenodd;stroke-linecap:round;stroke-linejoin:round;" version="1.1" viewBox="0 0 24 24" width="100%" xml:space="preserve" xmlns="http://www.w3.org/2000/svg" xmlns:vectornator="http://vectornator.io" xmlns:xlink="http://www.w3.org/1999/xlink">
<defs/>
<clipPath id="ArtboardFrame">
<rect height="24" width="24" x="0" y="0"/>
</clipPath>
<g clip-path="url(#ArtboardFrame)" id="Untitled" vectornator:layerName="Untitled">
<g opacity="1" vectornator:layerName="Group 2">
<g opacity="1" vectornator:layerName="Group 1">
<clipPath clip-rule="nonzero" id="ClipPath">
<path d="M-3.03335-2.87083L-3.03335 1.78752L-3.03335 3.50753L-3.03335 24.6493L3.48835 24.6493L3.48835 3.50753L21.4768 3.50753L21.4768-2.87083L-3.03335-2.87083Z"/>
</clipPath>
<g clip-path="url(#ClipPath)">
<path d="M13.4905 15.6961L11.4541 13.6768C10.4714 12.7022 9.98008 12.215 9.41631 12.0369C8.92043 11.8803 8.38743 11.886 7.89506 12.0534C7.3352 12.2437 6.85452 12.7414 5.89319 13.7369L1.01417 18.556M13.4905 15.6961L13.9073 15.2829C14.8911 14.3072 15.383 13.8194 15.9475 13.6413C16.4438 13.4846 16.9772 13.4909 17.4699 13.6589C18.03 13.8498 18.5106 14.3488 19.4718 15.3468L20.4931 16.3748M13.4905 15.6961L18.3872 20.6025M18.3872 20.6025C17.9509 20.6556 17.3853 20.6556 16.5865 20.6556L4.8669 20.6556C3.49947 20.6556 2.81576 20.6556 2.29348 20.3895C1.83406 20.1554 1.46055 19.7819 1.22647 19.3225C1.11656 19.1068 1.05205 18.8636 1.01417 18.556M18.3872 20.6025C18.6977 20.5648 18.9428 20.5002 19.16 20.3895C19.6194 20.1554 19.9929 19.7819 20.227 19.3225C20.4931 18.8002 20.4931 18.1165 20.4931 16.7491L20.4931 16.3748M1.01417 18.556C0.960349 18.1189 0.960349 17.5517 0.960349 16.7491L0.960349 5.02941C0.960349 3.662 0.960349 2.97828 1.22647 2.456C1.46055 1.99657 1.83406 1.62306 2.29348 1.38898C2.81576 1.12286 3.49947 1.12286 4.8669 1.12286L16.5865 1.12286C17.954 1.12286 18.6377 1.12286 19.16 1.38898C19.6194 1.62306 19.9929 1.99657 20.227 2.456C20.4931 2.97828 20.4931 3.662 20.4931 5.02941L20.4931 16.3748M16.8307 7.22671C16.8307 8.57521 15.7376 9.66831 14.3891 9.66831C13.0406 9.66831 11.9475 8.57521 11.9475 7.22671C11.9475 5.87825 13.0406 4.78512 14.3891 4.78512C15.7376 4.78512 16.8307 5.87825 16.8307 7.22671Z" fill="none" opacity="1" stroke="#fff7ed" stroke-linecap="round" stroke-linejoin="round" stroke-width="1.3" vectornator:layerName="path 1"/>
</g>
</g>
<path d="M16.0074 18.0645L13.971 16.0452C12.9884 15.0707 12.497 14.5834 11.9333 14.4053C11.4374 14.2487 10.9044 14.2544 10.412 14.4218C9.85217 14.6121 9.37149 15.1099 8.41016 16.1053L3.53114 20.9244M16.0074 18.0645L16.4242 17.6513C17.4081 16.6756 17.8999 16.1878 18.4644 16.0097C18.9608 15.8531 19.4942 15.8593 19.9869 16.0273C20.547 16.2182 21.0276 16.7173 21.9887 17.7153L23.0101 18.7432M16.0074 18.0645L20.9042 22.9709M20.9042 22.9709C20.4679 23.024 19.9023 23.024 19.1035 23.024L7.38386 23.024C6.01644 23.024 5.33273 23.024 4.81045 22.7579C4.35103 22.5239 3.97751 22.1503 3.74344 21.6909C3.63353 21.4752 3.56902 21.232 3.53114 20.9244M20.9042 22.9709C21.2146 22.9332 21.4598 22.8686 21.6769 22.7579C22.1363 22.5239 22.5099 22.1503 22.7439 21.6909C23.0101 21.1687 23.0101 20.4849 23.0101 19.1175L23.0101 18.7432M3.53114 20.9244C3.47732 20.4873 3.47732 19.9202 3.47732 19.1175L3.47732 7.39784C3.47732 6.03043 3.47732 5.34671 3.74344 4.82443C3.97751 4.36501 4.35103 3.99149 4.81045 3.75742C5.33273 3.49129 6.01644 3.49129 7.38386 3.49129L19.1035 3.49129C20.4709 3.49129 21.1547 3.49129 21.6769 3.75742C22.1363 3.99149 22.5099 4.36501 22.7439 4.82443C23.0101 5.34671 23.0101 6.03043 23.0101 7.39784L23.0101 18.7432M19.3477 9.59514C19.3477 10.9436 18.2546 12.0367 16.9061 12.0367C15.5576 12.0367 14.4645 10.9436 14.4645 9.59514C14.4645 8.24669 15.5576 7.15355 16.9061 7.15355C18.2546 7.15355 19.3477 8.24669 19.3477 9.59514Z" fill="none" opacity="1" stroke="#fff7ed" stroke-linecap="round" stroke-linejoin="round" stroke-width="1.3" vectornator:layerName="path"/>
</g>
</g>
</svg>

<svg xmlns="http://www.w3.org/2000/svg" xmlns:vectornator="http://vectornator.io" xml:space="preserve" stroke-miterlimit="10" style="fill-rule:nonzero;clip-rule:evenodd;stroke-linecap:round;stroke-linejoin:round" viewBox="0 0 24 24"><clipPath id="a"><path d="M0 0h24v24H0z"/></clipPath><g vectornator:layerName="Untitled"><g vectornator:layerName="Group 2" clip-path="url(#a)"><g vectornator:layerName="Group 1"><clipPath id="b" clip-rule="nonzero"><path d="M-3.033-2.87v27.519h6.521V3.508h17.989v-6.379h-24.51Z"/></clipPath><g clip-path="url(#b)"><path vectornator:layerName="path 1" fill="none" stroke="#fff7ed" stroke-width="1.3" d="m13.49 15.696-2.036-2.02c-.983-.974-1.474-1.461-2.038-1.64a2.442 2.442 0 0 0-1.52.017c-.56.19-1.041.688-2.003 1.684l-4.879 4.819m12.477-2.86.416-.413c.984-.976 1.476-1.464 2.04-1.642a2.44 2.44 0 0 1 1.523.018c.56.19 1.04.69 2.002 1.688l1.021 1.028m-7.002-.679 4.896 4.906m0 0c-.436.054-1.002.054-1.8.054H4.867c-1.368 0-2.051 0-2.574-.266a2.442 2.442 0 0 1-1.067-1.067 2.253 2.253 0 0 1-.212-.767m17.373 2.046c.31-.037.556-.102.773-.212.46-.235.833-.608 1.067-1.067.266-.523.266-1.207.266-2.574v-.374M1.014 18.556C.96 18.119.96 17.552.96 16.749V5.03c0-1.367 0-2.05.266-2.573.235-.46.608-.833 1.067-1.067.523-.266 1.206-.266 2.574-.266h11.72c1.367 0 2.05 0 2.573.266.46.234.833.608 1.067 1.067.266.522.266 1.206.266 2.573v11.346m-3.662-9.148a2.442 2.442 0 1 1-4.883 0 2.442 2.442 0 0 1 4.883 0Z"/></g></g><path vectornator:layerName="path" fill="none" stroke="#fff7ed" stroke-width="1.3" d="m16.007 18.064-2.036-2.019c-.983-.974-1.474-1.462-2.038-1.64a2.442 2.442 0 0 0-1.521.017c-.56.19-1.04.688-2.002 1.683l-4.879 4.82m12.476-2.86.417-.414c.984-.975 1.476-1.463 2.04-1.641a2.441 2.441 0 0 1 1.523.017c.56.191 1.04.69 2.002 1.688l1.021 1.028m-7.003-.678 4.897 4.906m0 0c-.436.053-1.002.053-1.8.053H7.383c-1.368 0-2.051 0-2.574-.266a2.441 2.441 0 0 1-1.067-1.067 2.253 2.253 0 0 1-.212-.767m17.373 2.047c.31-.038.556-.102.773-.213a2.44 2.44 0 0 0 1.067-1.067c.266-.522.266-1.206.266-2.573v-.375M3.531 20.924c-.054-.437-.054-1.004-.054-1.806V7.397c0-1.368 0-2.051.266-2.574.235-.459.608-.833 1.067-1.067.523-.266 1.206-.266 2.574-.266h11.72c1.367 0 2.05 0 2.573.266.46.234.833.608 1.067 1.067.266.523.266 1.206.266 2.574v11.345m-3.662-9.148a2.442 2.442 0 1 1-4.883 0 2.442 2.442 0 0 1 4.883 0Z"/></g></g></svg>
